themes/navy/source/img/icon-windows-gray.svg

<svg width="32" height="32" viewBox="0 0 32 32" fill="none" xmlns="http://www.w3.org/2000/svg">
<path d="M3 6.68117L13.2167 5.23856L13.2212 15.456L3.00933 15.5163L3 6.68117ZM13.2118 16.6333L13.2198 26.8596L3.00793 25.404L3.00736 16.5647L13.2118 16.6333ZM14.4503 5.04984L27.9969 3V15.3261L14.4503 15.4376V5.04984ZM28 16.7294L27.9968 29L14.4503 27.0177L14.4313 16.7065L28 16.7294Z" fill="#939BA1"/>
</svg>

<svg width="32" height="32" fill="none" xmlns="http://www.w3.org/2000/svg"><path d="M3 6.681L13.217 5.24l.004 10.217-10.212.06L3 6.681zm10.212 9.952l.008 10.227-10.212-1.456v-8.84l10.204.07zM14.45 5.05L27.997 3v12.326l-13.547.112V5.05zM28 16.73L27.997 29 14.45 27.018l-.019-10.312L28 16.73z" fill="#939BA1"/></svg>
